packages/icons/svg/Device_Laptop_32px.svg

<svg xmlns="http://www.w3.org/2000/svg" viewBox="0 0 32 32"><path d="M27 21V7a2 2 0 00-2-2H7a2 2 0 00-2 2v14a2 2 0 00-2 2v2a2 2 0 002 2h22a2 2 0 002-2v-2a2 2 0 00-2-2zM7 7h18v14H7zM5 25v-2h22v2z"/></svg>

<svg xmlns="http://www.w3.org/2000/svg" viewBox="0 0 32 32"><defs></defs><g id="Icon"><path  d="M27,21V7a2,2,0,0,0-2-2H7A2,2,0,0,0,5,7V21a2,2,0,0,0-2,2v2a2,2,0,0,0,2,2H27a2,2,0,0,0,2-2V23A2,2,0,0,0,27,21ZM7,7H25V21H7ZM5,25V23H27v2Z"/></g></svg>
